X: 16890
T: Haughs Of Cromdale, The
R: strathspey
M: 4/4
K: Edorian
|:(3edc|B>E (3EEE B>A (3FGA|B<E (3EEE D>EF<A|B>E (3EEE B>AF<A|B<Ad>F E2:|
|:d>F|D>d (3dde d>cB<A|F<A (3AAB A>FE<D|1 E>e (3eee (3gfe (3fed|B<dA>F E2:|
[2 B>e (3eee g>e (3eee|d>A (3AAD E2||

